X: 08003
T: ALTAN'S REEL
C: Bob McQuillen 10 Apr 91
B: Bob's Note Book 8 #3
R: jig
Z: 2005 John Chambers <jc:trillian.mit.edu>
M: 6/8
L: 1/8
K: Em
GA \
| B2e2 cefg | e2Bc BAGF | EFGE FGAF | GBde dBGA |
| B2e2 cefg | e2Bc BAGF | EFGE FGAB | GEFD E2  :|
|: de \
| gagd Bdga | gdBd edBd | gagd Bdga | geed efga |
| bgeg afdf | gage fdBd | edeg dBGA | Beed e2  :|
%%begintext align
%% Sarah Bauhan, Steve Zakon, and I drove down to the Iron Horse coffee house
%% in Horthampton, MA, to hear the Irish group ALTAN in concert. What a
%% wonderful way to spend the evening. They were truly great!
%%endtext

%%newpage
%%vskip 5.1cm
%%center --- 08018 spacer ---
%%sep 1 1 500

%%sep 1 1 500

%%sep 1 1 500

